src/assets/documents.svg

<svg fill="none" height="24" viewBox="0 0 25 24" width="25" xmlns="http://www.w3.org/2000/svg"><path d="m3.74414 5.33333c0-1.84095 1.49238-3.33333 3.33333-3.33333h10.00003c1.8409 0 3.3333 1.49238 3.3333 3.33333v13.33337c0 1.8409-1.4924 3.3333-3.3333 3.3333h-10.00003c-1.84095 0-3.33333-1.4924-3.33333-3.3333z" fill="#fbb03b"/><path d="m20.4105 9.47396v-4.14063c0-1.84095-1.4924-3.33333-3.3334-3.33333h-4.1406z" fill="#fcda21"/><path d="m12.9372 2.00065v4.14063c0 1.84094 1.4924 3.33333 3.3333 3.33333h4.1406z" fill="#f7931e"/></svg>

<svg width="25" height="24" viewBox="0 0 25 24" fill="none" xmlns="http://www.w3.org/2000/svg">
<path d="M3.74414 5.33333C3.74414 3.49238 5.23652 2 7.07747 2H17.0775C18.9184 2 20.4108 3.49238 20.4108 5.33333V18.6667C20.4108 20.5076 18.9184 22 17.0775 22H7.07747C5.23652 22 3.74414 20.5076 3.74414 18.6667V5.33333Z" fill="#FBB03B"/>
<path d="M20.4105 9.47396V5.33333C20.4105 3.49238 18.9181 2 17.0771 2H12.9365L20.4105 9.47396Z" fill="#FCDA21"/>
<path d="M12.9372 2.00065L12.9372 6.14128C12.9372 7.98222 14.4296 9.47461 16.2705 9.47461L20.4111 9.47461L12.9372 2.00065Z" fill="#F7931E"/>
</svg>
